rusokon/images/icon-stand.svg

<svg xmlns="http://www.w3.org/2000/svg" width="86" height="86" viewBox="0 0 86 86"><defs><style>.cls-1{fill:#f1f1f1;}.cls-2{fill:#ff1a46;}.cls-3{fill:none;stroke:#8d8d8d;stroke-miterlimit:10;}</style></defs><title>icon-stand</title><path class="cls-1" d="M0 0h86v86h-86z"/><path class="cls-2" d="M62.7 43.7l-9.9-5.4 2.4-1.2h9.2l9.3-10.3-1.5-1.3-8.7 9.7h-8.8l-4 2-2.9-1.6v-.7l6.2-2.1v-7.3l10.7-11.7-1.5-1.4-11.2 12.3v6.7l-4.6 1.5a5.67 5.67 0 0 0-.8-1.3 3 3 0 0 0 1.5-2.6 5 5 0 0 0-4-4.9v-6.1h-2v6.1a5 5 0 0 0-4 4.9 3.11 3.11 0 0 0 1.5 2.6 3.53 3.53 0 0 0-.8 1.3l-4.8-1.5v-6.7l-11.3-12.3-1.5 1.4 10.8 11.7v7.3l6.2 2.1v.7l-2.9 1.6-4-2h-8.8l-8.7-9.7-1.5 1.3 9.3 10.3h9.2l2.4 1.2-9.9 5.4a6.32 6.32 0 0 0-3.3 5.5 5.87 5.87 0 0 0 10.2 4l8.3-9 .1 2.9-4.8 4.8 2.1 6.2-7.8 14.6 1.8.9 8.2-15.4-1.9-5.8 2.6-2.6.1 3.4a4.17 4.17 0 0 0 4.1 4 4.1 4.1 0 0 0 4.1-4l.1-3.4 2.6 2.6-1.9 5.8 8.2 15.4 1.8-.9-7.8-14.7 2.1-6.2-4.8-4.8.1-2.9 8.3 9a5.87 5.87 0 0 0 10.2-4 6.09 6.09 0 0 0-3.3-5.4zm-22.5-8.6a3.23 3.23 0 0 1 .8-2.1 2.66 2.66 0 0 1 2-.9 2.52 2.52 0 0 1 2 .9 3.23 3.23 0 0 1 .8 2.1l-.2 5h-5.3zm5.4 7l-.1 3h-4.9l-.1-3zm-2.6-16a3 3 0 0 1 3 3 .94.94 0 0 1-1 1h-4a.94.94 0 0 1-1-1 3 3 0 0 1 3-3zm-14.3 25.8a3.78 3.78 0 0 1-2.8 1.2 3.9 3.9 0 0 1-3.9-3.9 4.5 4.5 0 0 1 2.2-3.8l14-7.7.1 3.6zm14.3 3.2a2.09 2.09 0 0 1-2.1-2v-1h4.3v1a2.26 2.26 0 0 1-2.2 2zm2.2-5h-4.5l-.1-2.3v-.7h4.7v.7zm14.9 3a4 4 0 0 1-2.8-1.2l-9.7-10.5.1-3.6 14 7.7a4.29 4.29 0 0 1 2.2 3.8 3.68 3.68 0 0 1-3.8 3.8z"/><path class="cls-3" d="M74.5 11.5l-63 63"/></svg>

<svg id="Layer_1" data-name="Layer 1" xmlns="http://www.w3.org/2000/svg" width="86px" height="86px" viewBox="0 0 86 86"><defs><style>.cls-1{fill:#f1f1f1;}.cls-2{fill:#ff1a46;}.cls-3{fill:none;stroke:#8d8d8d;stroke-miterlimit:10;}</style></defs><title>icon-stand</title><rect class="cls-1" width="86" height="86"/><path class="cls-2" d="M62.7,43.7l-9.9-5.4,2.4-1.2h9.2l9.3-10.3-1.5-1.3-8.7,9.7H54.7l-4,2-2.9-1.6v-.7L54,32.8V25.5L64.7,13.8l-1.5-1.4L52,24.7v6.7l-4.6,1.5a5.67,5.67,0,0,0-.8-1.3A3,3,0,0,0,48.1,29a5,5,0,0,0-4-4.9V18h-2v6.1a5,5,0,0,0-4,4.9,3.11,3.11,0,0,0,1.5,2.6,3.53,3.53,0,0,0-.8,1.3L34,31.4V24.7L22.7,12.4l-1.5,1.4L32,25.5v7.3l6.2,2.1v.7l-2.9,1.6-4-2H22.5l-8.7-9.7-1.5,1.3,9.3,10.3h9.2l2.4,1.2-9.9,5.4A6.32,6.32,0,0,0,20,49.2a5.87,5.87,0,0,0,10.2,4l8.3-9,.1,2.9-4.8,4.8,2.1,6.2L28.1,72.7l1.8.9,8.2-15.4-1.9-5.8,2.6-2.6.1,3.4a4.17,4.17,0,0,0,4.1,4,4.1,4.1,0,0,0,4.1-4l.1-3.4,2.6,2.6-1.9,5.8,8.2,15.4,1.8-.9L50.1,58l2.1-6.2L47.4,47l.1-2.9,8.3,9a5.87,5.87,0,0,0,10.2-4A6.09,6.09,0,0,0,62.7,43.7ZM40.2,35.1A3.23,3.23,0,0,1,41,33a2.66,2.66,0,0,1,2-.9,2.52,2.52,0,0,1,2,.9,3.23,3.23,0,0,1,.8,2.1l-.2,5H40.3Zm5.4,7-.1,3H40.6l-.1-3ZM43,26.1a3,3,0,0,1,3,3,.94.94,0,0,1-1,1H41a.94.94,0,0,1-1-1A3,3,0,0,1,43,26.1ZM28.7,51.9a3.78,3.78,0,0,1-2.8,1.2A3.9,3.9,0,0,1,22,49.2a4.5,4.5,0,0,1,2.2-3.8l14-7.7.1,3.6ZM43,55.1a2.09,2.09,0,0,1-2.1-2v-1h4.3v1A2.26,2.26,0,0,1,43,55.1Zm2.2-5H40.7l-.1-2.3h0v-.7h4.7v.7h0Zm14.9,3a4,4,0,0,1-2.8-1.2L47.6,41.4l.1-3.6,14,7.7a4.29,4.29,0,0,1,2.2,3.8A3.68,3.68,0,0,1,60.1,53.1Z"/><line class="cls-3" x1="74.5" y1="11.5" x2="11.5" y2="74.5"/></svg>
